src/assets/tokens/PTUSDe.svg

<svg fill="none" height="39" viewBox="0 0 39 39" width="39" xmlns="http://www.w3.org/2000/svg" xmlns:xlink="http://www.w3.org/1999/xlink"><radialGradient id="a" cx="0" cy="0" gradientTransform="matrix(0 38.2413 -26.918 0 19.5478 6.66838)" gradientUnits="userSpaceOnUse" r="1"><stop offset=".03125" stop-color="#3a3a3a"/><stop offset="1" stop-color="#1c1c1c"/></radialGradient><linearGradient id="b" gradientUnits="userSpaceOnUse" x1="19.5088" x2="19.5088" y1="1.02961" y2="37.9886"><stop offset="0" stop-color="#fff"/><stop offset="1" stop-color="#111"/></linearGradient><path d="m19.5085 1.69983h.0007c9.8356 0 17.8089 7.97331 17.8089 17.80897v.0006c0 9.8356-7.9733 17.8089-17.8089 17.8089h-.0007c-9.83558 0-17.8089-7.9733-17.8089-17.8089v-.0006c0-9.83566 7.97332-17.80897 17.8089-17.80897z" fill="#111" stroke="#111" stroke-width=".900384"/><path d="m19.5092 1.37183h-.0007c-10.01676 0-18.13693 8.12018-18.13693 18.13697v.0007c0 10.0167 8.12017 18.1368 18.13693 18.1368h.0007c10.0167 0 18.1369-8.1201 18.1369-18.1368v-.0007c0-10.01679-8.1202-18.13697-18.1369-18.13697z" fill="url(#a)" fill-opacity=".7"/><path d="m19.5092 1.37183h-.0007c-10.01676 0-18.13693 8.12018-18.13693 18.13697v.0007c0 10.0167 8.12017 18.1368 18.13693 18.1368h.0007c10.0167 0 18.1369-8.1201 18.1369-18.1368v-.0007c0-10.01679-8.1202-18.13697-18.1369-18.13697z" stroke="url(#b)" stroke-width=".911781"/><path clip-rule="evenodd" d="m14.2246 5.25183c-5.78752 2.14263-9.91277 7.71167-9.91277 14.24427s4.12525 12.1016 9.91277 14.2443v-1.498c-5.00044-2.0703-8.5183-6.9974-8.5183-12.7463 0-5.7488 3.51786-10.67604 8.5183-12.74637zm10.5434 1.49809v-1.49792c5.7874 2.14275 9.9124 7.7117 9.9124 14.2441s-4.125 12.1014-9.9124 14.2441v-1.4979c5.0002-2.0705 8.5179-6.9975 8.5179-12.7462 0-5.7486-3.5177-10.67573-8.5179-12.74618z" fill="#fff" fill-rule="evenodd"/><path clip-rule="evenodd" d="m19.497 6.74854.7953 1.36647 4.868 8.36369h3.0784v1.3945h-17.4774v-1.3945h3.0712l4.869-8.36377zm-.0002 3.65886 3.5338 6.0713h-7.0682zm5.6722 12.021h3.0697v-1.3944h-17.4774v1.3944h3.0625l4.8777 8.3787.7955 1.3664.7953-1.3665zm-2.1297 0h-7.0855l3.543 6.0862z" fill="#fff" fill-rule="evenodd"/><circle cx="19.5" cy="19.5" r="17.5" stroke="#1be3c2" stroke-width="2"/></svg>

<svg width="39" height="39" viewBox="0 0 39 39" fill="none" xmlns="http://www.w3.org/2000/svg">
    <path
        d="M19.5085 1.69983H19.5092C29.3448 1.69983 37.3181 9.67314 37.3181 19.5088V19.5094C37.3181 29.345 29.3448 37.3183 19.5092 37.3183H19.5085C9.67292 37.3183 1.6996 29.345 1.6996 19.5094V19.5088C1.6996 9.67314 9.67292 1.69983 19.5085 1.69983Z"
        fill="#111111" stroke="#111111" stroke-width="0.900384" />
    <path
        d="M19.5092 1.37183H19.5085C9.49174 1.37183 1.37157 9.49201 1.37157 19.5088V19.5095C1.37157 29.5262 9.49174 37.6463 19.5085 37.6463H19.5092C29.5259 37.6463 37.6461 29.5262 37.6461 19.5095V19.5088C37.6461 9.49201 29.5259 1.37183 19.5092 1.37183Z"
        fill="url(#paint0_radial_3814_2558)" fill-opacity="0.7" />
    <path
        d="M19.5092 1.37183H19.5085C9.49174 1.37183 1.37157 9.49201 1.37157 19.5088V19.5095C1.37157 29.5262 9.49174 37.6463 19.5085 37.6463H19.5092C29.5259 37.6463 37.6461 29.5262 37.6461 19.5095V19.5088C37.6461 9.49201 29.5259 1.37183 19.5092 1.37183Z"
        stroke="url(#paint1_linear_3814_2558)" stroke-width="0.911781" />
    <path fill-rule="evenodd" clip-rule="evenodd"
        d="M14.2246 5.25183C8.43708 7.39446 4.31183 12.9635 4.31183 19.4961C4.31183 26.0287 8.43708 31.5977 14.2246 33.7404V32.2424C9.22416 30.1721 5.7063 25.245 5.7063 19.4961C5.7063 13.7473 9.22416 8.82006 14.2246 6.74973V5.25183ZM24.768 6.74992V5.252C30.5554 7.39475 34.6804 12.9637 34.6804 19.4961C34.6804 26.0285 30.5554 31.5975 24.768 33.7402V32.2423C29.7682 30.1718 33.2859 25.2448 33.2859 19.4961C33.2859 13.7475 29.7682 8.82037 24.768 6.74992Z"
        fill="white" />
    <path fill-rule="evenodd" clip-rule="evenodd"
        d="M19.497 6.74854L20.2923 8.11501L25.1603 16.4787H28.2387V17.8732H10.7613V16.4787H13.8325L18.7015 8.11493L19.497 6.74854ZM19.4968 10.4074L23.0306 16.4787H15.9624L19.4968 10.4074ZM25.169 22.4284H28.2387V21.034H10.7613V22.4284H13.8238L18.7015 30.8071L19.497 32.1735L20.2923 30.807L25.169 22.4284ZM23.0393 22.4284H15.9538L19.4968 28.5146L23.0393 22.4284Z"
        fill="white" />
    <circle cx="19.5" cy="19.5" r="17.5" stroke="#1BE3C2" stroke-width="2" />
    <defs>
        <radialGradient id="paint0_radial_3814_2558" cx="0" cy="0" r="1" gradientUnits="userSpaceOnUse"
            gradientTransform="translate(19.5478 6.66838) rotate(90) scale(38.2413 26.918)">
            <stop offset="0.03125" stop-color="#3A3A3A" />
            <stop offset="1" stop-color="#1C1C1C" />
        </radialGradient>
        <linearGradient id="paint1_linear_3814_2558" x1="19.5088" y1="1.02961" x2="19.5088" y2="37.9886"
            gradientUnits="userSpaceOnUse">
            <stop stop-color="white" />
            <stop offset="1" stop-color="#111111" />
        </linearGradient>
    </defs>
</svg>
